X:1
T:St. Sacrament, 10.10.10.10
T:St. Sacrament, 10.10.10.10
T:William Henry Monk, 1875
T:Public Domain Courtesy of the Cyber Hymnal™
C:William Henry Monk, 1875
Z:Public Domain
Z:Courtesy of the Cyber Hymnal™
%%score ( 1 2 ) ( 3 4 )
L:1/8
Q:1/4=110
M:3/4
K:Eb
V:1 treble 
V:2 treble 
V:3 bass 
V:4 bass 
V:1
 [EB]2 [EA]2 [EB]2 | [Ec]3 [DB] [DG][DF] | E4 [DF]2 | [EG]6 G2 z E2 x3 | B3 z A [EG]2 | %5
 F[DB] [Fd]3 [Ec] | [DB]6 | [DB]2 [DF]2 [=EA]2 | [FA]4 [DG]2 | [Gc]3 [Ge] [Fd][Ec] | %10
 ([Ec]2 [D=B]2) [DB]2 | ([Ec]2 [FB]2) [DA]2 | [EG]3 [EA] [EB]2- | [EB][EA] [EG]2 [DF]2 x | E6 |] %15
V:2
 x6 | x6 | E4 x2 | x6 E3 (F2 D) E2 | E2 D2 x3 | F x5 | x6 | x6 | x6 | x6 | x6 | x6 | x6 | x7 | %14
 E6 |] %15
V:3
 [E,G,]2 [E,F,]2 [E,G,]2 | [A,,A,]3 [B,,F,] [B,,A,][B,,A,] | [C,G,]4 [B,,B,]2 | %3
 [E,B,]6 B,3 z B, [G,B,]2 x | C2 B,2 [E,B,]2 x | [D,B,][G,B,] [F,B,]2 [F,,=A,]2 | [B,,B,]6 | %7
 [B,,B,]2 [A,B,]2 [G,B,]2 | [F,C]4 [F,=B,]2 | [E,C]3 [C,C] [F,A,][F,A,] | G,4 G,2 | %11
 ([C,G,]2 [D,B,]2) [F,B,]2 | B,3 [C,C] (ED) | CC B,3 z A, | [E,G,]6 |] %15
V:4
 x6 | x6 | x6 | x6 E,2 A,2 x4 | F,4 x3 | x6 | x6 | x6 | x6 | x6 | G,4 G,2 | x6 | E,2 D, G,,2 x | %13
 A,,2 B,,2 B,,2 x | x6 |] %15

